X:1
T:Shenandoah Falls
L:1/8
M:6/4
I:linebreak $
K:A
V:1 treble nm="Voice" snm="Voice"
V:1
 cd | e2 ef edcB | AB (3cBA d4 | c2 cA (3BcB Ac | BAGF E2 cd |$ e2 ef eccB | AB (3cBA d4 | %7
 cBAc BA G2 | A6 ::$ G2 |"Em" F4 B4 | F2 AB- BA F2 | A2 cA BcAB | cABc- cB A2 |$"Bm" F4 B4 | %15
 F2 AB Bfed | cdec BA G2 | A6 :| %18
